resources/svg/major-credit-card.svg

<svg xmlns="http://www.w3.org/2000/svg" viewBox="0 0 20 20" fill="currentColor"><path d="M0 4.5a1.5 1.5 0 0 1 1.5-1.5h17a1.5 1.5 0 0 1 1.5 1.5v1.5h-20v-1.5z"/><path d="M0 8v7.5a1.5 1.5 0 0 0 1.5 1.5h17a1.5 1.5 0 0 0 1.5-1.5v-7.5h-20zm7 4h-5v-2h5v2z"/></svg>

<svg xmlns="http://www.w3.org/2000/svg" viewBox="0 0 20 20" fill="currentColor"><path d="M0 4.5A1.5 1.5 0 011.5 3h17A1.5 1.5 0 0120 4.5V6H0V4.5z" fill="#5C5F62"/><path d="M0 8v7.5A1.5 1.5 0 001.5 17h17a1.5 1.5 0 001.5-1.5V8H0zm7 4H2v-2h5v2z" fill="#5C5F62"/></svg>
